;FLAVOR:Marlin
;TIME:1608
;Filament used: 1.09019m
;Layer height: 0.28
;MINX:92.613
;MINY:100.124
;MINZ:0.28
;MAXX:142.067
;MAXY:134.884
;MAXZ:27.16
;Generated with Cura_SteamEngine master
M82 ;absolute extrusion mode
; Ender 3 Custom Start G-code
G92 E0 ; Reset Extruder
M140 S55.0 ; start preheating the bed
M104 S205 ﻿T0 ; start preheating hotend
G28 ; Home all axes
M190 S55.0 ; wait until heat to Cura Bed setting
M109 S205 ﻿T0 ; wait untill heat to Cura Hotend
M300 S1000 P500 ; chirp to indicate starting to print
G1 Z2.0 F3000 ; Move Z Axis up little to prevent scratching of Heat Bed
G1 X0.1 Y20 Z0.3 F5000.0 ; Move to start position
G1 X0.1 Y200.0 Z0.3 F1500.0 E15 ; Draw the first line
G1 X0.4 Y200.0 Z0.3 F5000.0 ; Move to side a little
G1 X0.4 Y20 Z0.3 F1500.0 E30 ; Draw the second line
G92 E0 ; Reset Extruder
G1 Z2.0 F3000 ; Move Z Axis up little to prevent scratching of Heat Bed
G1 X5 Y20 Z0.3 F5000.0 ; Move over to prevent blob squish
G92 E0
G92 E0
G1 F1500 E-6
;LAYER_COUNT:97
;LAYER:0
M107
G1 F300 Z0.56
G0 F7500 X102.807 Y108.461 Z0.56
;TYPE:SKIRT
G1 F300 Z0.28
G1 F1500 E0
G1 X103.005 Y108.285 E0.01234
G1 X103.252 Y108.083 E0.02719
G1 X103.463 Y107.925 E0.03947
G1 X103.731 Y107.742 E0.05458
G1 X104.08 Y107.528 E0.07364
G1 X108.49 Y105.01 E0.31011
G1 X108.763 Y104.868 E0.32443
G1 X109.169 Y104.678 E0.34531
G1 X109.621 Y104.501 E0.36791
G1 X109.874 Y104.42 E0.38028
G1 X110.135 Y104.347 E0.3929
G1 X110.39 Y104.285 E0.40512
G1 X110.729 Y104.218 E0.42121
G1 X110.991 Y104.179 E0.43354
G1 X111.275 Y104.148 E0.44685
G1 X111.537 Y104.129 E0.45908
G1 X111.841 Y104.119 E0.47324
G1 X112.103 Y104.121 E0.48544
G1 X112.418 Y104.137 E0.50013
G1 X112.682 Y104.161 E0.51247
G1 X113.064 Y104.215 E0.53044
G1 X113.403 Y104.281 E0.54652
G1 X113.698 Y104.351 E0.56064
G1 X113.949 Y104.421 E0.57277
G1 X114.275 Y104.528 E0.58875
G1 X114.523 Y104.622 E0.6011
G1 X114.93 Y104.804 E0.62186
G1 X115.397 Y105.047 E0.64637
G1 X115.801 Y105.29 E0.66832
G1 X116.017 Y105.439 E0.68054
G1 X116.273 Y105.632 E0.69547
G1 X116.476 Y105.799 E0.70771
G1 X116.691 Y105.99 E0.7211
G1 X116.882 Y106.173 E0.73342
G1 X117.093 Y106.392 E0.74758
G1 X117.269 Y106.59 E0.75991
G1 X117.471 Y106.837 E0.77477
G1 X117.629 Y107.048 E0.78705
G1 X117.812 Y107.316 E0.80216
G1 X118.025 Y107.662 E0.82108
G1 X118.751 Y108.931 E0.88915
G1 X133.244 Y100.643 E1.66656
G1 X133.741 Y100.405 E1.69222
G1 X134.267 Y100.241 E1.71788
G1 X134.894 Y100.149 E1.74739
G1 X135.295 Y100.124 E1.76609
G1 X135.846 Y100.13 E1.79175
G1 X136.39 Y100.215 E1.81739
G1 X136.916 Y100.378 E1.84303
G1 X137.413 Y100.616 E1.86869
G1 X137.871 Y100.923 E1.89437
G1 X138.279 Y101.293 E1.92001
G1 X138.63 Y101.718 E1.94568
G1 X138.83 Y102.03 E1.96294
G1 X141.573 Y106.826 E2.2202
G1 X141.811 Y107.323 E2.24586
G1 X141.975 Y107.849 E2.27152
G1 X142.061 Y108.394 E2.29721
G1 X142.067 Y108.945 E2.32287
G1 X141.994 Y109.491 E2.34852
G1 X141.842 Y110.02 E2.37415
G1 X141.615 Y110.523 E2.39984
G1 X141.421 Y110.843 E2.41727
G1 X141.195 Y111.177 E2.43605
G1 X140.854 Y111.609 E2.46167
G1 X140.454 Y111.988 E2.48733
G1 X139.934 Y112.346 E2.51673
G1 X101.974 Y134.042 E4.55264
G1 X101.785 Y134.143 E4.56262
G1 X101.296 Y134.387 E4.58807
G1 X100.786 Y134.597 E4.61375
G1 X100.48 Y134.683 E4.62855
G1 X100.048 Y134.786 E4.64923
G1 X99.504 Y134.875 E4.6749
G1 X98.954 Y134.884 E4.70051
G1 X98.407 Y134.813 E4.7262
G1 X97.877 Y134.664 E4.75183
G1 X97.373 Y134.44 E4.77752
G1 X96.908 Y134.145 E4.80316
G1 X96.49 Y133.787 E4.82878
G1 X96.128 Y133.371 E4.85446
G1 X95.867 Y132.974 E4.87659
G1 X93.503 Y128.832 E5.09866
G1 X93.13 Y128.195 E5.13303
G1 X92.886 Y127.701 E5.15868
G1 X92.717 Y127.177 E5.18432
G1 X92.625 Y126.633 E5.21001
G1 X92.613 Y126.083 E5.23563
G1 X92.68 Y125.536 E5.26129
G1 X92.826 Y125.004 E5.28698
G1 X93.048 Y124.5 E5.31262
G1 X93.34 Y124.032 E5.33831
G1 X93.687 Y123.621 E5.36335
G1 X94 Y123.3 E5.38423
G1 X94.591 Y122.806 E5.4201
G1 X95 Y122.534 E5.44297
G1 X95.61 Y122.163 E5.47621
G1 X102.186 Y118.401 E5.82899
G1 X101.383 Y116.993 E5.90446
G1 X101.263 Y116.761 E5.91662
G1 X101.142 Y116.505 E5.92981
G1 X101.038 Y116.261 E5.94216
G1 X100.913 Y115.925 E5.95885
G1 X100.833 Y115.674 E5.97112
G1 X100.759 Y115.407 E5.98402
G1 X100.698 Y115.153 E5.99619
G1 X100.637 Y114.84 E6.01103
G1 X100.597 Y114.578 E6.02337
G1 X100.563 Y114.28 E6.03734
G1 X100.544 Y114.019 E6.04953
G1 X100.534 Y113.714 E6.06374
G1 X100.536 Y113.45 E6.07603
G1 X100.552 Y113.134 E6.09076
G1 X100.576 Y112.871 E6.10306
G1 X100.63 Y112.49 E6.12098
G1 X100.696 Y112.151 E6.13706
G1 X100.766 Y111.856 E6.15118
G1 X100.836 Y111.605 E6.16331
G1 X100.938 Y111.292 E6.17864
G1 X101.031 Y111.044 E6.19097
G1 X101.218 Y110.624 E6.21238
G1 X101.461 Y110.157 E6.23689
G1 X101.711 Y109.743 E6.25941
G1 X101.861 Y109.527 E6.27166
G1 X102.042 Y109.288 E6.28562
G1 X102.209 Y109.084 E6.2979
G1 X102.404 Y108.864 E6.31158
G0 F1350 X102.412 Y108.855
G0 X102.595 Y108.665
G0 X102.807 Y108.461
G0 F7500 X103.073 Y108.76
G1 F1500 X103.271 Y108.584 E6.32392
G1 X103.492 Y108.403 E6.33722
G1 X103.703 Y108.245 E6.3495
G1 X103.942 Y108.082 E6.36297
G1 X104.278 Y107.875 E6.38134
G1 X108.688 Y105.357 E6.61781
G1 X108.933 Y105.231 E6.63064
G1 X109.339 Y105.041 E6.65151
G1 X109.743 Y104.882 E6.67172
G1 X109.996 Y104.801 E6.68409
G1 X110.23 Y104.735 E6.69542
G1 X110.485 Y104.673 E6.70764
G1 X110.787 Y104.614 E6.72196
G1 X111.049 Y104.575 E6.7343
G1 X111.304 Y104.547 E6.74624
G1 X111.566 Y104.528 E6.75847
G1 X111.838 Y104.519 E6.77115
G1 X112.1 Y104.521 E6.78335
G1 X112.382 Y104.535 E6.79649
G1 X112.646 Y104.559 E6.80884
G1 X112.988 Y104.608 E6.82493
G1 X113.327 Y104.674 E6.84101
G1 X113.59 Y104.736 E6.85359
G1 X113.841 Y104.806 E6.86572
G1 X114.133 Y104.902 E6.88004
G1 X114.381 Y104.996 E6.89239
G1 X114.745 Y105.159 E6.91096
G1 X115.212 Y105.402 E6.93547
G1 X115.574 Y105.619 E6.95512
G1 X115.79 Y105.768 E6.96734
G1 X116.019 Y105.941 E6.98071
G1 X116.222 Y106.108 E6.99295
G1 X116.414 Y106.279 E7.00492
G1 X116.605 Y106.462 E7.01723
G1 X116.794 Y106.658 E7.02991
G1 X116.97 Y106.856 E7.04225
G1 X117.151 Y107.077 E7.05555
G1 X117.309 Y107.288 E7.06782
G1 X117.472 Y107.527 E7.0813
G1 X117.677 Y107.861 E7.09954
G1 X118.601 Y109.477 E7.18622
G1 X133.442 Y100.99 E7.9823
G1 X133.913 Y100.767 E8.00657
G1 X134.413 Y100.619 E8.03085
G1 X134.918 Y100.549 E8.05459
G1 X135.319 Y100.524 E8.07329
G1 X135.841 Y100.531 E8.0976
G1 X136.354 Y100.618 E8.12183
G1 X136.849 Y100.783 E8.14613
G1 X137.312 Y101.021 E8.17037
G1 X137.734 Y101.327 E8.19464
G1 X138.104 Y101.694 E8.21891
G1 X138.482 Y102.229 E8.24941
G1 X141.225 Y107.025 E8.50668
G1 X141.449 Y107.496 E8.53096
G1 X141.597 Y107.995 E8.5552
G1 X141.668 Y108.512 E8.5795
G1 X141.659 Y109.033 E8.60376
G1 X141.57 Y109.546 E8.62801
G1 X141.404 Y110.04 E8.65227
G1 X141.09 Y110.618 E8.6829
G1 X140.864 Y110.952 E8.70168
G1 X140.54 Y111.36 E8.72594
G1 X140.157 Y111.714 E8.75023
G1 X139.735 Y111.999 E8.77394
G1 X101.775 Y133.695 E10.80985
G1 X101.606 Y133.785 E10.81877
G1 X101.117 Y134.029 E10.84421
G1 X100.388 Y134.294 E10.88033
G1 X99.956 Y134.397 E10.90101
G1 X99.441 Y134.479 E10.92529
G1 X98.92 Y134.481 E10.94955
G1 X98.404 Y134.403 E10.97386
G1 X97.907 Y134.248 E10.9981
G1 X97.439 Y134.018 E11.02238
G1 X97.012 Y133.72 E11.04662
G1 X96.635 Y133.359 E11.07093
G1 X96.214 Y132.775 E11.10445
G1 X93.85 Y128.633 E11.32652
G1 X93.475 Y127.993 E11.36106
G1 X93.246 Y127.525 E11.38532
G1 X93.092 Y127.027 E11.4096
G1 X93.016 Y126.511 E11.43388
G1 X93.02 Y125.99 E11.45814
G1 X93.103 Y125.476 E11.48239
G1 X93.264 Y124.98 E11.50667
G1 X93.499 Y124.515 E11.53093
G1 X93.974 Y123.9 E11.56711
G1 X94.287 Y123.579 E11.58799
G1 X94.815 Y123.137 E11.62005
G1 X95.209 Y122.875 E11.64209
G1 X95.809 Y122.51 E11.67479
G1 X102.743 Y118.544 E12.04675
G1 X102.67 Y118.44 E12.05266
G1 X101.738 Y116.809 E12.14013
G1 X101.618 Y116.577 E12.1523
G1 X101.51 Y116.348 E12.16409
G1 X101.406 Y116.104 E12.17644
G1 X101.295 Y115.803 E12.19138
G1 X101.215 Y115.552 E12.20364
G1 X101.148 Y115.314 E12.21516
G1 X101.087 Y115.06 E12.22732
G1 X101.032 Y114.779 E12.24065
G1 X100.992 Y114.517 E12.25299
G1 X100.962 Y114.251 E12.26546
G1 X100.943 Y113.99 E12.27764
G1 X100.934 Y113.717 E12.29036
G1 X100.936 Y113.453 E12.30266
G1 X100.95 Y113.17 E12.31585
G1 X100.974 Y112.907 E12.32815
G1 X101.023 Y112.566 E12.34419
G1 X101.089 Y112.227 E12.36027
G1 X101.151 Y111.964 E12.37285
G1 X101.221 Y111.713 E12.38499
G1 X101.312 Y111.432 E12.39874
G1 X101.405 Y111.184 E12.41107
G1 X101.573 Y110.809 E12.43021
G1 X101.816 Y110.342 E12.45472
G1 X102.039 Y109.972 E12.47484
G1 X102.189 Y109.756 E12.48708
G1 X102.351 Y109.541 E12.49962
G1 X102.518 Y109.337 E12.51189
G1 X102.671 Y109.164 E12.52265
G0 F1350 X102.7 Y109.132
G0 X102.883 Y108.942
G0 X103.073 Y108.76
G0 F7500 X103.339 Y109.059
G1 F1500 X103.537 Y108.883 E12.53498
G1 X103.732 Y108.724 E12.5467
G1 X103.943 Y108.566 E12.55897
G1 X104.154 Y108.421 E12.57089
G1 X104.476 Y108.223 E12.58849
G1 X108.886 Y105.705 E12.82496
G1 X109.102 Y105.593 E12.83629
G1 X109.508 Y105.403 E12.85716
G1 X109.865 Y105.263 E12.87502
G1 X110.118 Y105.182 E12.88739
G1 X110.324 Y105.124 E12.89735
G1 X110.579 Y105.062 E12.90957
G1 X110.846 Y105.01 E12.92224
G1 X111.108 Y104.971 E12.93457
G1 X111.333 Y104.946 E12.94511
G1 X111.595 Y104.927 E12.95734
G1 X111.835 Y104.919 E12.96853
G1 X112.097 Y104.921 E12.98073
G1 X112.346 Y104.933 E12.99233
G1 X112.61 Y104.957 E13.00468
G1 X112.911 Y105 E13.01884
G1 X113.25 Y105.066 E13.03492
G1 X113.483 Y105.121 E13.04607
G1 X113.734 Y105.191 E13.0582
G1 X113.991 Y105.276 E13.0708
G1 X114.239 Y105.37 E13.08315
G1 X114.561 Y105.514 E13.09958
G1 X115.028 Y105.757 E13.12409
G1 X115.346 Y105.949 E13.14139
G1 X115.562 Y106.098 E13.15361
G1 X115.765 Y106.25 E13.16542
G1 X115.968 Y106.417 E13.17766
G1 X116.137 Y106.568 E13.18821
G1 X116.328 Y106.751 E13.20053
G1 X116.495 Y106.924 E13.21172
G1 X116.671 Y107.122 E13.22406
G1 X116.83 Y107.317 E13.23577
G1 X116.988 Y107.528 E13.24805
G1 X117.133 Y107.739 E13.25997
G1 X117.33 Y108.06 E13.27751
G1 X118.453 Y110.023 E13.38281
G1 X133.641 Y101.338 E14.19749
G1 X134.084 Y101.13 E14.22028
G1 X134.555 Y100.998 E14.24306
G1 X134.943 Y100.948 E14.26127
G1 X135.344 Y100.923 E14.27998
G1 X135.834 Y100.932 E14.3028
G1 X136.315 Y101.021 E14.32558
G1 X136.776 Y101.187 E14.3484
G1 X137.203 Y101.426 E14.37118
G1 X137.586 Y101.731 E14.39398
G1 X137.914 Y102.094 E14.41676
G1 X138.135 Y102.428 E14.43541
G1 X140.878 Y107.224 E14.69268
G1 X141.086 Y107.667 E14.71547
G1 X141.218 Y108.138 E14.73824
G1 X141.273 Y108.625 E14.76106
G1 X141.247 Y109.113 E14.78382
G1 X141.142 Y109.592 E14.80665
G1 X140.961 Y110.046 E14.82941
G1 X140.759 Y110.394 E14.84815
G1 X140.533 Y110.728 E14.86693
G1 X140.226 Y111.11 E14.88975
G1 X139.862 Y111.437 E14.91253
G1 X139.537 Y111.652 E14.93067
G1 X101.577 Y133.348 E16.96659
G1 X101.427 Y133.427 E16.97448
G1 X100.938 Y133.671 E16.99993
G1 X100.295 Y133.905 E17.03179
G1 X99.863 Y134.008 E17.05247
G1 X99.379 Y134.083 E17.07528
G1 X98.889 Y134.077 E17.0981
G1 X98.407 Y133.992 E17.12089
G1 X97.946 Y133.83 E17.14364
G1 X97.516 Y133.595 E17.16646
G1 X97.131 Y133.293 E17.18924
G1 X96.8 Y132.933 E17.21201
G1 X96.561 Y132.577 E17.23198
G1 X94.197 Y128.435 E17.45405
G1 X93.82 Y127.791 E17.4888
G1 X93.608 Y127.35 E17.51158
G1 X93.47 Y126.88 E17.53439
G1 X93.41 Y126.394 E17.55719
G1 X93.431 Y125.905 E17.57998
G1 X93.53 Y125.426 E17.60276
G1 X93.707 Y124.969 E17.62558
G1 X93.955 Y124.547 E17.64837
G1 X94.26 Y124.18 E17.67059
G1 X94.573 Y123.859 E17.69147
G1 X95.04 Y123.469 E17.7198
G1 X95.418 Y123.216 E17.74098
G1 X96.007 Y122.857 E17.7731
G1 X103.328 Y118.669 E18.16583
G1 X103.17 Y118.481 E18.17727
G1 X103.017 Y118.241 E18.19052
G1 X102.093 Y116.625 E18.2772
G1 X101.973 Y116.393 E18.28936
G1 X101.878 Y116.191 E18.29976
G1 X101.774 Y115.947 E18.31211
G1 X101.676 Y115.682 E18.32526
G1 X101.596 Y115.431 E18.33753
G1 X101.537 Y115.221 E18.34769
G1 X101.476 Y114.967 E18.35985
G1 X101.427 Y114.719 E18.37162
G1 X101.387 Y114.457 E18.38396
G1 X101.361 Y114.222 E18.39497
G1 X101.342 Y113.961 E18.40716
G1 X101.334 Y113.72 E18.41839
G1 X101.336 Y113.456 E18.43068
G1 X101.348 Y113.206 E18.44233
G1 X101.372 Y112.943 E18.45463
G1 X101.415 Y112.643 E18.46874
G1 X101.481 Y112.304 E18.48483
G1 X101.536 Y112.071 E18.49597
G1 X101.606 Y111.82 E18.50811
G1 X101.687 Y111.573 E18.52021
G1 X101.78 Y111.325 E18.53254
G1 X101.928 Y110.993 E18.54947
G1 X102.171 Y110.526 E18.57398
G1 X102.368 Y110.2 E18.59172
G1 X102.518 Y109.984 E18.60396
G1 X102.661 Y109.795 E18.615
G1 X102.828 Y109.591 E18.62728
G1 X102.939 Y109.466 E18.63506
G0 F1350 X102.988 Y109.41
G0 X103.171 Y109.22
G0 X103.339 Y109.059
G0 F7500 X103.605 Y109.358
G1 F1500 X103.803 Y109.182 E18.6474
G1 X103.972 Y109.044 E18.65756
G1 X104.183 Y108.886 E18.66983
G1 X104.366 Y108.761 E18.68015
G1 X104.675 Y108.57 E18.69706
G1 X109.085 Y106.052 E18.93353
G1 X109.272 Y105.955 E18.94334
G1 X109.678 Y105.765 E18.96421
G1 X109.987 Y105.644 E18.97966
G1 X110.24 Y105.563 E18.99203
G1 X110.419 Y105.513 E19.00069
G1 X110.674 Y105.451 E19.01291
G1 X110.905 Y105.405 E19.02387
G1 X111.167 Y105.366 E19.03621
G1 X111.362 Y105.345 E19.04534
G1 X111.624 Y105.326 E19.05757
G1 X111.832 Y105.319 E19.06726
G1 X112.094 Y105.321 E19.07946
G1 X112.309 Y105.332 E19.08949
G1 X112.573 Y105.356 E19.10183
G1 X112.835 Y105.393 E19.11415
G1 X113.174 Y105.459 E19.13023
G1 X113.375 Y105.507 E19.13986
G1 X113.626 Y105.577 E19.15199
G1 X113.85 Y105.65 E19.16296
G1 X114.098 Y105.744 E19.17531
G1 X114.376 Y105.869 E19.1895
G1 X114.843 Y106.112 E19.21402
G1 X115.119 Y106.278 E19.22901
G1 X115.335 Y106.427 E19.24123
G1 X115.511 Y106.559 E19.25148
G1 X115.714 Y106.726 E19.26372
G1 X115.861 Y106.857 E19.27288
G1 X116.052 Y107.04 E19.2852
G1 X116.196 Y107.19 E19.29488
G1 X116.372 Y107.388 E19.30722
G1 X116.51 Y107.557 E19.31738
G1 X116.668 Y107.768 E19.32965
G1 X116.793 Y107.951 E19.33997
G1 X116.983 Y108.258 E19.35678
G1 X118.304 Y110.568 E19.48069
G1 X133.839 Y101.685 E20.31398
G1 X134.253 Y101.494 E20.33521
G1 X134.694 Y101.379 E20.35643
G1 X134.968 Y101.347 E20.36927
G1 X135.369 Y101.322 E20.38798
G1 X135.825 Y101.334 E20.40922
G1 X136.271 Y101.425 E20.43042
G1 X136.695 Y101.592 E20.45164
G1 X137.083 Y101.831 E20.47286
G1 X137.423 Y102.134 E20.49406
G1 X137.788 Y102.626 E20.52259
G1 X140.531 Y107.422 E20.77986
G1 X140.722 Y107.836 E20.80109
G1 X140.837 Y108.277 E20.82231
G1 X140.874 Y108.731 E20.84352
G1 X140.831 Y109.184 E20.86471
G1 X140.709 Y109.624 E20.88597
G1 X140.427 Y110.17 E20.91458
G1 X140.201 Y110.504 E20.93336
G1 X139.914 Y110.858 E20.95458
G1 X139.569 Y111.156 E20.97581
G1 X139.338 Y111.304 E20.98858
G1 X101.249 Y133.069 E23.03131
G1 X100.76 Y133.313 E23.05675
G1 X100.202 Y133.516 E23.0844
G1 X99.77 Y133.619 E23.10508
G1 X99.319 Y133.686 E23.12631
G1 X98.864 Y133.672 E23.14751
G1 X98.418 Y133.58 E23.16872
G1 X97.995 Y133.411 E23.18993
G1 X97.607 Y133.17 E23.21119
G1 X97.268 Y132.866 E23.2324
G1 X96.909 Y132.379 E23.26057
G1 X94.545 Y128.237 E23.48264
G1 X94.165 Y127.589 E23.51762
G1 X93.97 Y127.177 E23.53884
G1 X93.85 Y126.737 E23.56008
G1 X93.808 Y126.284 E23.58126
G1 X93.846 Y125.83 E23.60248
G1 X93.963 Y125.389 E23.62372
G1 X94.155 Y124.976 E23.64493
G1 X94.546 Y124.459 E23.67511
G1 X94.859 Y124.138 E23.69599
G1 X95.264 Y123.8 E23.72055
G1 X95.627 Y123.557 E23.7409
G1 X96.206 Y123.204 E23.77247
G1 X103.979 Y118.758 E24.18944
G1 X103.918 Y118.714 E24.19294
G1 X103.601 Y118.387 E24.21415
G1 X103.364 Y118.042 E24.23364
G1 X102.449 Y116.441 E24.3195
G1 X102.329 Y116.209 E24.33167
G1 X102.246 Y116.034 E24.34069
G1 X102.142 Y115.79 E24.35304
G1 X102.057 Y115.561 E24.36441
G1 X101.977 Y115.31 E24.37668
G1 X101.926 Y115.127 E24.38552
G1 X101.865 Y114.873 E24.39769
G1 X101.823 Y114.658 E24.40789
G1 X101.783 Y114.396 E24.42023
G1 X101.76 Y114.193 E24.42974
G1 X101.741 Y113.932 E24.44193
G1 X101.734 Y113.723 E24.45166
G1 X101.736 Y113.459 E24.46396
G1 X101.747 Y113.243 E24.47403
G1 X101.771 Y112.98 E24.48633
G1 X101.808 Y112.719 E24.4986
G1 X101.874 Y112.38 E24.51468
G1 X101.922 Y112.179 E24.5243
G1 X101.992 Y111.928 E24.53644
