;FLAVOR:Marlin
;TIME:6209
;Filament used: 5.81487m
;Layer height: 0.28
;MINX:88.658
;MINY:46.554
;MINZ:0.28
;MAXX:148.03
;MAXY:191.084
;MAXZ:24.92
;Generated with Cura_SteamEngine master
M82 ;absolute extrusion mode
; Ender 3 Custom Start G-code
G92 E0 ; Reset Extruder
M140 S55.0 ; start preheating the bed
M104 S205 ﻿T0 ; start preheating hotend
G28 ; Home all axes
M190 S55.0 ; wait until heat to Cura Bed setting
M109 S205 ﻿T0 ; wait untill heat to Cura Hotend
M300 S1000 P500 ; chirp to indicate starting to print
G1 Z2.0 F3000 ; Move Z Axis up little to prevent scratching of Heat Bed
G1 X0.1 Y20 Z0.3 F5000.0 ; Move to start position
G1 X0.1 Y200.0 Z0.3 F1500.0 E15 ; Draw the first line
G1 X0.4 Y200.0 Z0.3 F5000.0 ; Move to side a little
G1 X0.4 Y20 Z0.3 F1500.0 E30 ; Draw the second line
G92 E0 ; Reset Extruder
G1 Z2.0 F3000 ; Move Z Axis up little to prevent scratching of Heat Bed
G1 X5 Y20 Z0.3 F5000.0 ; Move over to prevent blob squish
G92 E0
G92 E0
G1 F1500 E-6
;LAYER_COUNT:89
;LAYER:0
M107
G1 F300 Z0.56
G0 F7500 X133.629 Y56.096 Z0.56
;TYPE:SKIRT
G1 F300 Z0.28
G1 F1500 E0
G1 X133.846 Y55.651 E0.02305
G1 X134.025 Y55.338 E0.03984
G1 X134.333 Y54.88 E0.06554
G1 X134.604 Y54.571 E0.08468
G1 X134.801 Y54.369 E0.09782
G1 X135.213 Y54.003 E0.12348
G1 X135.674 Y53.701 E0.14914
G1 X136.279 Y53.431 E0.17999
G1 X136.493 Y53.357 E0.19054
G1 X137.026 Y53.215 E0.21622
G1 X137.735 Y53.148 E0.24938
G1 X138.467 Y53.148 E0.28347
G1 X139.017 Y53.188 E0.30914
G1 X139.704 Y53.355 E0.34207
G1 X139.919 Y53.429 E0.35265
G1 X140.425 Y53.645 E0.37827
G1 X140.895 Y53.933 E0.40394
G1 X141.402 Y54.369 E0.43508
G1 X141.599 Y54.571 E0.44821
G1 X141.955 Y54.992 E0.47389
G1 X142.172 Y55.328 E0.49251
G1 X142.351 Y55.639 E0.50922
G1 X142.585 Y56.121 E0.53417
G1 X142.676 Y56.348 E0.54556
G1 X142.844 Y56.873 E0.57122
G1 X142.914 Y57.25 E0.58908
G1 X143.013 Y57.988 E0.62375
G1 X143.061 Y58.443 E0.64506
G1 X143.082 Y58.839 E0.66352
G1 X143.089 Y67.588 E1.07091
G1 X143.406 Y67.588 E1.08567
G1 X144.168 Y67.665 E1.12133
G1 X144.485 Y67.73 E1.1364
G1 X145.016 Y67.88 E1.1621
G1 X145.668 Y68.189 E1.19569
G1 X145.881 Y68.316 E1.20724
G1 X146.333 Y68.632 E1.23292
G1 X146.665 Y68.937 E1.25391
G1 X146.817 Y69.094 E1.26409
G1 X147.171 Y69.516 E1.28974
G1 X147.513 Y70.093 E1.32097
G1 X147.621 Y70.318 E1.33259
G1 X147.823 Y70.83 E1.35822
G1 X147.938 Y71.306 E1.38102
G1 X147.975 Y71.517 E1.391
G1 X148.03 Y72.065 E1.41664
G1 X148.027 Y72.362 E1.43047
G1 X145.372 Y125.625 E3.9137
G1 X143.174 Y169.62 E5.96485
G1 X143.127 Y170.324 E5.9977
G1 X143.102 Y170.57 E6.00922
G1 X142.886 Y172.202 E6.08587
G1 X142.829 Y172.525 E6.10114
G1 X142.472 Y174.136 E6.17798
G1 X142.387 Y174.455 E6.19335
G1 X141.893 Y176.024 E6.26995
G1 X141.778 Y176.339 E6.28556
G1 X141.147 Y177.86 E6.36224
G1 X141.008 Y178.159 E6.37759
G1 X140.248 Y179.619 E6.45423
G1 X140.082 Y179.905 E6.46963
G1 X139.198 Y181.293 E6.54626
G1 X139.007 Y181.566 E6.56177
G1 X138.005 Y182.871 E6.63838
G1 X137.793 Y183.124 E6.65375
G1 X136.682 Y184.337 E6.73035
G1 X136.445 Y184.573 E6.74592
G1 X135.231 Y185.684 E6.82255
G1 X134.979 Y185.896 E6.83788
G1 X133.677 Y186.895 E6.9143
G1 X133.409 Y187.083 E6.92954
G1 X132.026 Y187.966 E7.00595
G1 X131.735 Y188.134 E7.02159
G1 X130.276 Y188.893 E7.09817
G1 X129.978 Y189.032 E7.11349
G1 X128.464 Y189.66 E7.18981
G1 X128.148 Y189.775 E7.20547
G1 X126.583 Y190.267 E7.28186
G1 X126.267 Y190.352 E7.29709
G1 X124.664 Y190.708 E7.37355
G1 X124.336 Y190.766 E7.38906
G1 X122.71 Y190.98 E7.46543
G1 X122.379 Y191.008 E7.4809
G1 X120.578 Y191.083 E7.56483
G1 X93.596 Y191.084 E8.82123
G1 X93.149 Y191.058 E8.84208
G1 X92.82 Y191.019 E8.8575
G1 X92.279 Y190.914 E8.88317
G1 X91.918 Y190.797 E8.90084
G1 X91.61 Y190.68 E8.91618
G1 X91.11 Y190.448 E8.94184
G1 X90.727 Y190.203 E8.96301
G1 X90.53 Y190.06 E8.97435
G1 X90.108 Y189.705 E9.00003
G1 X89.882 Y189.464 E9.01541
G1 X89.703 Y189.256 E9.02819
G1 X89.375 Y188.813 E9.05386
G1 X89.163 Y188.434 E9.07408
G1 X89.07 Y188.242 E9.08401
G1 X88.866 Y187.73 E9.10968
G1 X88.762 Y187.321 E9.12933
G1 X88.73 Y187.159 E9.13702
G1 X88.658 Y186.422 E9.1715
G1 X88.66 Y180.513 E9.44664
G1 X88.687 Y180.064 E9.46759
G1 X88.71 Y179.871 E9.47664
G1 X88.814 Y179.33 E9.50229
G1 X89.112 Y178.568 E9.54039
G1 X89.216 Y178.368 E9.55089
G1 X89.617 Y177.751 E9.58515
G1 X89.763 Y177.568 E9.59605
G1 X90.136 Y177.163 E9.62169
G1 X90.58 Y176.807 E9.64819
G1 X90.852 Y176.62 E9.66356
G1 X91.328 Y176.341 E9.68925
G1 X91.728 Y176.172 E9.70947
G1 X91.983 Y176.081 E9.72208
G1 X92.756 Y175.894 E9.75911
G1 X93.092 Y175.849 E9.7749
G1 X93.596 Y175.815 E9.79842
G1 X114.526 Y175.814 E10.77301
G1 X115.673 Y175.764 E10.82647
G1 X116.742 Y175.625 E10.87666
G1 X117.798 Y175.391 E10.92703
G1 X118.83 Y175.066 E10.97741
G1 X119.805 Y174.66 E11.02659
G1 X120.788 Y174.15 E11.07815
G1 X121.683 Y173.579 E11.12759
G1 X122.536 Y172.924 E11.17767
G1 X123.338 Y172.189 E11.22832
G1 X124.067 Y171.394 E11.27855
G1 X124.727 Y170.533 E11.32906
G1 X125.298 Y169.635 E11.37862
G1 X125.809 Y168.654 E11.43012
G1 X126.223 Y167.659 E11.4803
G1 X126.542 Y166.64 E11.53002
G1 X126.781 Y165.563 E11.58139
G1 X126.922 Y164.496 E11.63151
G1 X126.972 Y163.342 E11.68529
G1 X126.969 Y108.318 E14.24744
G1 X126.975 Y72.144 E15.93185
G1 X127.015 Y71.595 E15.95749
G1 X127.108 Y71.148 E15.97875
G1 X127.18 Y70.883 E15.99153
G1 X127.363 Y70.363 E16.0172
G1 X127.749 Y69.679 E16.05377
G1 X127.95 Y69.396 E16.06994
G1 X128.301 Y68.971 E16.0956
G1 X128.9 Y68.461 E16.13223
G1 X129.081 Y68.337 E16.14245
G1 X129.557 Y68.059 E16.16812
G1 X130.068 Y67.854 E16.19376
G1 X130.381 Y67.768 E16.20887
G1 X130.748 Y67.684 E16.2264
G1 X131.293 Y67.6 E16.25208
G1 X131.588 Y67.588 E16.26583
G1 X133.114 Y67.585 E16.33688
G1 X133.121 Y58.841 E16.74404
G1 X133.141 Y58.454 E16.76209
G1 X133.202 Y57.881 E16.78892
G1 X133.286 Y57.257 E16.81824
G1 X133.399 Y56.718 E16.84388
G1 X133.43 Y56.63 E16.84822
G0 F1350 X133.536 Y56.323
G0 X133.629 Y56.096
G0 F7500 X133.999 Y56.248
G1 F1500 X134.194 Y55.849 E16.8689
G1 X134.373 Y55.536 E16.88569
G1 X134.665 Y55.105 E16.90993
G1 X134.89 Y54.85 E16.92577
G1 X135.087 Y54.648 E16.93891
G1 X135.478 Y54.304 E16.96316
G1 X135.918 Y54.024 E16.98744
G1 X136.41 Y53.809 E17.01244
G1 X136.624 Y53.735 E17.02299
G1 X137.128 Y53.603 E17.04725
G1 X137.735 Y53.548 E17.07563
G1 X138.467 Y53.548 E17.10971
G1 X138.987 Y53.588 E17.134
G1 X139.574 Y53.733 E17.16215
G1 X139.789 Y53.807 E17.17274
G1 X140.267 Y54.014 E17.197
G1 X140.708 Y54.292 E17.22127
G1 X141.116 Y54.648 E17.24648
G1 X141.313 Y54.85 E17.25962
G1 X141.647 Y55.25 E17.28389
G1 X141.826 Y55.528 E17.29928
G1 X142.005 Y55.839 E17.31599
G1 X142.214 Y56.27 E17.3383
G1 X142.305 Y56.497 E17.34968
G1 X142.461 Y56.994 E17.37394
G1 X142.518 Y57.304 E17.38862
G1 X142.615 Y58.03 E17.42272
G1 X142.663 Y58.485 E17.44403
G1 X142.682 Y58.839 E17.46053
G1 X142.689 Y67.988 E17.88655
G1 X143.406 Y67.988 E17.91994
G1 X144.088 Y68.057 E17.95186
G1 X144.405 Y68.122 E17.96692
G1 X144.906 Y68.266 E17.9912
G1 X145.463 Y68.533 E18.01996
G1 X145.676 Y68.66 E18.03151
G1 X146.102 Y68.96 E18.05577
G1 X146.378 Y69.215 E18.07327
G1 X146.53 Y69.372 E18.08344
G1 X146.862 Y69.773 E18.10768
G1 X147.152 Y70.266 E18.13432
G1 X147.26 Y70.491 E18.14594
G1 X147.449 Y70.976 E18.17017
G1 X147.544 Y71.375 E18.18927
G1 X147.581 Y71.586 E18.19925
G1 X147.628 Y72.342 E18.23452
G1 X144.973 Y125.605 E20.71775
G1 X142.774 Y169.593 E22.76857
G1 X142.727 Y170.297 E22.80142
G1 X142.706 Y170.517 E22.81171
G1 X142.49 Y172.149 E22.88837
G1 X142.438 Y172.439 E22.90209
G1 X142.081 Y174.05 E22.97892
G1 X142.005 Y174.335 E22.99266
G1 X141.511 Y175.904 E23.06925
G1 X141.408 Y176.186 E23.08323
G1 X140.777 Y177.707 E23.15991
G1 X140.653 Y177.974 E23.17362
G1 X139.893 Y179.434 E23.25026
G1 X139.745 Y179.69 E23.26403
G1 X138.861 Y181.078 E23.34066
G1 X138.69 Y181.323 E23.35457
G1 X137.688 Y182.628 E23.43118
G1 X137.498 Y182.853 E23.44489
G1 X136.387 Y184.066 E23.52149
G1 X136.175 Y184.278 E23.53545
G1 X134.961 Y185.389 E23.61207
G1 X134.736 Y185.578 E23.62576
G1 X133.434 Y186.577 E23.70217
G1 X133.194 Y186.746 E23.71584
G1 X131.811 Y187.629 E23.79225
G1 X131.55 Y187.779 E23.80626
G1 X130.091 Y188.538 E23.88284
G1 X129.825 Y188.663 E23.89653
G1 X128.311 Y189.291 E23.97285
G1 X128.028 Y189.393 E23.98686
G1 X126.463 Y189.885 E24.06325
G1 X126.18 Y189.961 E24.07689
G1 X124.577 Y190.317 E24.15335
G1 X124.284 Y190.369 E24.16721
G1 X122.658 Y190.583 E24.24358
G1 X122.361 Y190.609 E24.25746
G1 X120.578 Y190.683 E24.34055
G1 X93.596 Y190.684 E25.59695
G1 X93.196 Y190.66 E25.61561
G1 X92.867 Y190.621 E25.63104
G1 X92.355 Y190.521 E25.65533
G1 X92.06 Y190.423 E25.6698
G1 X91.752 Y190.306 E25.68514
G1 X91.28 Y190.085 E25.70941
G1 X90.962 Y189.88 E25.72703
G1 X90.765 Y189.737 E25.73836
G1 X90.368 Y189.399 E25.76264
G1 X90.185 Y189.203 E25.77513
G1 X90.006 Y188.995 E25.78791
G1 X89.697 Y188.575 E25.81219
G1 X89.523 Y188.259 E25.82898
G1 X89.43 Y188.067 E25.83892
G1 X89.239 Y187.582 E25.86319
G1 X89.154 Y187.244 E25.87942
G1 X89.122 Y187.082 E25.88711
G1 X89.058 Y186.422 E25.91798
G1 X89.06 Y180.513 E26.19313
G1 X89.084 Y180.112 E26.21184
G1 X89.107 Y179.919 E26.22089
G1 X89.208 Y179.407 E26.24519
G1 X89.466 Y178.752 E26.27797
G1 X89.57 Y178.552 E26.28847
G1 X89.929 Y178.001 E26.31909
G1 X90.075 Y177.818 E26.32999
G1 X90.43 Y177.436 E26.35427
G1 X90.807 Y177.136 E26.37671
G1 X91.079 Y176.949 E26.39208
G1 X91.53 Y176.688 E26.41634
G1 X91.862 Y176.549 E26.4331
G1 X92.117 Y176.458 E26.44571
G1 X92.809 Y176.29 E26.47886
G1 X93.145 Y176.245 E26.49465
G1 X93.596 Y176.215 E26.5157
G1 X114.519 Y176.214 E27.48996
G1 X115.72 Y176.162 E27.54593
G1 X116.802 Y176.02 E27.59675
G1 X117.91 Y175.775 E27.64959
G1 X118.961 Y175.444 E27.7009
G1 X119.979 Y175.02 E27.75225
G1 X120.982 Y174.5 E27.80485
G1 X121.915 Y173.905 E27.85638
G1 X122.792 Y173.232 E27.90786
G1 X123.621 Y172.472 E27.96022
G1 X124.376 Y171.648 E28.01226
G1 X125.052 Y170.767 E28.06397
G1 X125.648 Y169.83 E28.11568
G1 X126.174 Y168.819 E28.16875
G1 X126.598 Y167.8 E28.22014
G1 X126.929 Y166.744 E28.27167
G1 X127.174 Y165.642 E28.32424
G1 X127.321 Y164.533 E28.37633
G1 X127.372 Y163.336 E28.43212
G1 X127.369 Y108.318 E30.99399
G1 X127.375 Y72.144 E32.6784
G1 X127.415 Y71.625 E32.70264
G1 X127.494 Y71.253 E32.72035
G1 X127.566 Y70.988 E32.73313
G1 X127.741 Y70.497 E32.7574
G1 X128.075 Y69.91 E32.78885
G1 X128.276 Y69.627 E32.80502
G1 X128.609 Y69.227 E32.82925
G1 X129.126 Y68.791 E32.86074
G1 X129.307 Y68.667 E32.87096
G1 X129.759 Y68.406 E32.89526
G1 X130.47 Y68.158 E32.93033
G1 X130.837 Y68.074 E32.94786
G1 X131.589 Y67.988 E32.9831
G1 X133.514 Y67.984 E33.07274
G1 X133.521 Y58.841 E33.49847
G1 X133.539 Y58.495 E33.51461
G1 X133.598 Y57.934 E33.54087
G1 X133.682 Y57.31 E33.57019
G1 X133.791 Y56.801 E33.59443
G1 X133.798 Y56.782 E33.59537
G0 F1350 X133.906 Y56.475
G0 X133.999 Y56.248
G0 F7500 X134.369 Y56.4
G1 F1500 X134.541 Y56.048 E33.61362
G1 X134.72 Y55.735 E33.63041
G1 X134.997 Y55.331 E33.65321
G1 X135.176 Y55.129 E33.66578
G1 X135.373 Y54.927 E33.67892
G1 X135.742 Y54.606 E33.70169
G1 X136.159 Y54.349 E33.7245
G1 X136.541 Y54.187 E33.74382
G1 X136.755 Y54.113 E33.75437
G1 X137.229 Y53.991 E33.77716
G1 X137.735 Y53.948 E33.8008
G1 X138.467 Y53.948 E33.83489
G1 X138.955 Y53.988 E33.85769
G1 X139.443 Y54.111 E33.88112
G1 X139.658 Y54.185 E33.89171
G1 X140.107 Y54.382 E33.91454
G1 X140.517 Y54.649 E33.93732
G1 X140.83 Y54.927 E33.95682
G1 X141.027 Y55.129 E33.96996
G1 X141.339 Y55.507 E33.99278
G1 X141.479 Y55.727 E34.00492
G1 X141.658 Y56.038 E34.02163
G1 X141.843 Y56.419 E34.04135
G1 X141.934 Y56.646 E34.05274
G1 X142.078 Y57.113 E34.0755
G1 X142.122 Y57.358 E34.08709
G1 X142.217 Y58.072 E34.12063
G1 X142.265 Y58.527 E34.14193
G1 X142.282 Y58.84 E34.15653
G1 X142.289 Y68.388 E34.60112
G1 X143.406 Y68.388 E34.65313
G1 X144.008 Y68.449 E34.68131
G1 X144.325 Y68.514 E34.69638
G1 X144.794 Y68.651 E34.71913
G1 X145.258 Y68.876 E34.74314
G1 X145.471 Y69.003 E34.75469
G1 X145.87 Y69.287 E34.77749
G1 X146.09 Y69.493 E34.79153
G1 X146.242 Y69.65 E34.8017
G1 X146.553 Y70.029 E34.82453
G1 X146.792 Y70.439 E34.84663
G1 X146.9 Y70.664 E34.85825
G1 X147.075 Y71.121 E34.88104
G1 X147.15 Y71.444 E34.89648
G1 X147.187 Y71.655 E34.90645
G1 X147.228 Y72.322 E34.93757
G1 X144.573 Y125.585 E37.4208
G1 X142.375 Y169.567 E39.47134
G1 X142.328 Y170.271 E39.50419
G1 X142.309 Y170.465 E39.51327
G1 X142.093 Y172.097 E39.58993
G1 X142.048 Y172.352 E39.60198
G1 X141.691 Y173.963 E39.67882
G1 X141.624 Y174.215 E39.69096
G1 X141.13 Y175.784 E39.76755
G1 X141.039 Y176.033 E39.7799
G1 X140.408 Y177.554 E39.85658
G1 X140.298 Y177.789 E39.86866
G1 X139.538 Y179.249 E39.9453
G1 X139.407 Y179.476 E39.9575
G1 X138.523 Y180.864 E40.03413
G1 X138.372 Y181.079 E40.04636
G1 X137.37 Y182.384 E40.12298
G1 X137.203 Y182.583 E40.13507
G1 X136.092 Y183.796 E40.21167
G1 X135.905 Y183.983 E40.22398
G1 X134.691 Y185.094 E40.30061
G1 X134.492 Y185.261 E40.31271
G1 X133.19 Y186.26 E40.38912
G1 X132.978 Y186.409 E40.40119
G1 X131.595 Y187.292 E40.47759
G1 X131.366 Y187.424 E40.4899
G1 X129.907 Y188.183 E40.56648
G1 X129.671 Y188.293 E40.5786
G1 X128.157 Y188.921 E40.65493
G1 X127.908 Y189.012 E40.66727
G1 X126.343 Y189.504 E40.74366
G1 X126.093 Y189.571 E40.75571
G1 X124.49 Y189.927 E40.83217
G1 X124.231 Y189.972 E40.84441
G1 X122.605 Y190.186 E40.92078
G1 X122.344 Y190.209 E40.93298
G1 X120.578 Y190.283 E41.01529
G1 X93.596 Y190.284 E42.27168
G1 X93.243 Y190.263 E42.28815
G1 X92.914 Y190.224 E42.30357
G1 X92.434 Y190.127 E42.32638
G1 X92.202 Y190.049 E42.33777
G1 X91.894 Y189.932 E42.35312
G1 X91.452 Y189.722 E42.3759
G1 X91.197 Y189.556 E42.39007
G1 X91 Y189.413 E42.4014
G1 X90.488 Y188.942 E42.4338
G1 X90.309 Y188.734 E42.44658
G1 X90.021 Y188.338 E42.46938
G1 X89.883 Y188.085 E42.4828
G1 X89.79 Y187.893 E42.49273
G1 X89.613 Y187.436 E42.51555
G1 X89.547 Y187.166 E42.52849
G1 X89.515 Y187.004 E42.53618
G1 X89.458 Y186.422 E42.56341
G1 X89.46 Y180.513 E42.83856
G1 X89.481 Y180.159 E42.85507
G1 X89.504 Y179.966 E42.86412
G1 X89.601 Y179.486 E42.88693
G1 X89.821 Y178.937 E42.91447
G1 X89.925 Y178.737 E42.92496
G1 X90.242 Y178.25 E42.95202
G1 X90.388 Y178.067 E42.96292
G1 X90.723 Y177.711 E42.98568
G1 X91.033 Y177.466 E43.00408
G1 X91.305 Y177.279 E43.01945
G1 X91.73 Y177.035 E43.04227
G1 X91.997 Y176.926 E43.0557
G1 X92.252 Y176.835 E43.06831
G1 X92.862 Y176.687 E43.09754
G1 X93.198 Y176.642 E43.11332
G1 X93.596 Y176.615 E43.1319
G1 X114.537 Y176.614 E44.107
G1 X115.743 Y176.562 E44.16321
G1 X116.882 Y176.413 E44.21669
G1 X118.004 Y176.164 E44.27021
G1 X119.098 Y175.82 E44.32361
G1 X120.153 Y175.381 E44.37682
G1 X121.181 Y174.847 E44.43076
G1 X122.149 Y174.229 E44.48424
G1 X123.053 Y173.536 E44.53728
G1 X123.899 Y172.761 E44.5907
G1 X124.684 Y171.904 E44.64482
G1 X125.378 Y170.999 E44.69792
G1 X125.998 Y170.024 E44.75172
G1 X126.533 Y168.998 E44.8056
G1 X126.974 Y167.937 E44.8591
G1 X127.316 Y166.846 E44.91234
G1 X127.569 Y165.703 E44.96685
G1 X127.72 Y164.568 E45.02017
G1 X127.772 Y163.353 E45.0768
G1 X127.769 Y108.318 E47.63946
G1 X127.775 Y72.144 E49.32387
G1 X127.815 Y71.656 E49.34667
G1 X127.88 Y71.357 E49.36092
G1 X127.952 Y71.092 E49.37371
G1 X128.118 Y70.632 E49.39648
G1 X128.401 Y70.142 E49.42283
G1 X128.602 Y69.859 E49.43899
G1 X128.917 Y69.484 E49.46179
G1 X129.352 Y69.121 E49.48818
G1 X129.533 Y68.997 E49.49839
G1 X129.959 Y68.754 E49.52123
G1 X130.56 Y68.548 E49.55081
G1 X130.927 Y68.464 E49.56834
G1 X131.59 Y68.388 E49.59942
G1 X133.914 Y68.383 E49.70763
G1 X133.921 Y58.842 E50.1519
G1 X133.937 Y58.536 E50.16617
G1 X133.995 Y57.988 E50.19183
G1 X134.079 Y57.364 E50.22115
G1 X134.173 Y56.934 E50.24164
G0 F1350 X134.183 Y56.886
G0 X134.276 Y56.627
G0 X134.369 Y56.4
G0 F7500 X134.739 Y56.551
G1 F1500 X134.888 Y56.246 E50.25745
G1 X135.067 Y55.933 E50.27424
G1 X135.463 Y55.409 E50.30482
G1 X135.66 Y55.207 E50.31796
G1 X136.005 Y54.91 E50.33916
G1 X136.397 Y54.677 E50.36039
G1 X136.671 Y54.565 E50.37417
G1 X136.885 Y54.491 E50.38472
G1 X137.327 Y54.38 E50.40594
G1 X137.735 Y54.348 E50.425
G1 X138.467 Y54.348 E50.45908
