;FLAVOR:Marlin
;TIME:3500
;Filament used: 1.53184m
;Layer height: 0.16
;MINX:34.601
;MINY:154.601
;MINZ:0.16
;MAXX:80.399
;MAXY:200.399
;MAXZ:13.6
;Generated with Cura_SteamEngine master
M82 ;absolute extrusion mode
; Ender 3 Custom Start G-code
G92 E0 ; Reset Extruder
M140 S55.0 ; start preheating the bed
M104 S205 ﻿T0 ; start preheating hotend
G28 ; Home all axes
M190 S55.0 ; wait until heat to Cura Bed setting
M109 S205 ﻿T0 ; wait untill heat to Cura Hotend
M300 S1000 P500 ; chirp to indicate starting to print
G1 Z2.0 F3000 ; Move Z Axis up little to prevent scratching of Heat Bed
G1 X0.1 Y20 Z0.3 F5000.0 ; Move to start position
G1 X0.1 Y200.0 Z0.3 F1500.0 E15 ; Draw the first line
G1 X0.4 Y200.0 Z0.3 F5000.0 ; Move to side a little
G1 X0.4 Y20 Z0.3 F1500.0 E30 ; Draw the second line
G92 E0 ; Reset Extruder
G1 Z2.0 F3000 ; Move Z Axis up little to prevent scratching of Heat Bed
G1 X5 Y20 Z0.3 F5000.0 ; Move over to prevent blob squish
G92 E0
G92 E0
G1 F1500 E-6
;LAYER_COUNT:84
;LAYER:0
M107
M205 X20 Y20
G1 F300 Z0.32
G0 F7500 X50.63 Y155.656 Z0.32
;TYPE:SKIRT
G1 F300 Z0.16
G1 F1500 E0
G1 X51.371 Y155.437 E0.02056
G1 X52.124 Y155.241 E0.04126
G1 X52.895 Y155.068 E0.06229
G1 X53.669 Y154.923 E0.08324
G1 X54.442 Y154.807 E0.10404
G1 X55.206 Y154.718 E0.12451
G1 X55.989 Y154.651 E0.14542
G1 X56.775 Y154.613 E0.16635
G1 X57.545 Y154.601 E0.18684
G1 X58.196 Y154.61 E0.20417
G1 X59.12 Y154.657 E0.22879
G1 X59.893 Y154.726 E0.24944
G1 X60.668 Y154.82 E0.27021
G1 X61.446 Y154.942 E0.29116
G1 X62.209 Y155.089 E0.31184
G1 X62.985 Y155.266 E0.33302
G1 X63.726 Y155.464 E0.35342
G1 X64.484 Y155.691 E0.37448
G1 X65.214 Y155.939 E0.39499
G1 X65.952 Y156.217 E0.41598
G1 X66.68 Y156.521 E0.43697
G1 X67.38 Y156.842 E0.45746
G1 X68.08 Y157.191 E0.47827
G1 X68.777 Y157.569 E0.49937
G1 X69.436 Y157.958 E0.51973
G1 X70.106 Y158.382 E0.54083
G1 X70.751 Y158.824 E0.56163
G1 X71.373 Y159.281 E0.58217
G1 X71.997 Y159.772 E0.6033
G1 X72.592 Y160.277 E0.62406
G1 X73.166 Y160.798 E0.64469
G1 X73.73 Y161.345 E0.66559
G1 X74.272 Y161.908 E0.68639
G1 X74.795 Y162.49 E0.70721
G1 X75.303 Y163.096 E0.72825
G1 X75.775 Y163.703 E0.74871
G1 X76.238 Y164.337 E0.7696
G1 X76.679 Y164.988 E0.79052
G1 X77.092 Y165.646 E0.81119
G1 X77.486 Y166.323 E0.83203
G1 X77.859 Y167.016 E0.85297
G1 X78.2 Y167.71 E0.87355
G1 X78.527 Y168.432 E0.89464
G1 X78.821 Y169.148 E0.91523
G1 X79.094 Y169.88 E0.93602
G1 X79.344 Y170.629 E0.95703
G1 X79.563 Y171.371 E0.97762
G1 X79.759 Y172.124 E0.99832
G1 X79.932 Y172.895 E1.01934
G1 X80.077 Y173.668 E1.04027
G1 X80.194 Y174.441 E1.06107
G1 X80.282 Y175.205 E1.08154
G1 X80.349 Y175.988 E1.10245
G1 X80.387 Y176.775 E1.12341
G1 X80.399 Y177.543 E1.14385
G1 X80.385 Y178.335 E1.16493
G1 X80.343 Y179.12 E1.18584
G1 X80.274 Y179.893 E1.20649
G1 X80.18 Y180.668 E1.22727
G1 X80.058 Y181.446 E1.24822
G1 X79.911 Y182.209 E1.2689
G1 X79.735 Y182.982 E1.28999
G1 X79.537 Y183.726 E1.31048
G1 X79.309 Y184.484 E1.33154
G1 X79.061 Y185.214 E1.35205
G1 X78.783 Y185.952 E1.37304
G1 X78.479 Y186.68 E1.39403
G1 X78.158 Y187.38 E1.41452
G1 X77.809 Y188.08 E1.43533
G1 X77.431 Y188.777 E1.45643
G1 X77.042 Y189.436 E1.47679
G1 X76.618 Y190.106 E1.49789
G1 X76.176 Y190.751 E1.51869
G1 X75.719 Y191.373 E1.53923
G1 X75.228 Y191.997 E1.56036
G1 X74.723 Y192.592 E1.58112
G1 X74.202 Y193.166 E1.60175
G1 X73.655 Y193.73 E1.62265
G1 X73.092 Y194.272 E1.64345
G1 X72.51 Y194.795 E1.66427
G1 X71.904 Y195.303 E1.68531
G1 X71.297 Y195.775 E1.70577
G1 X70.663 Y196.238 E1.72666
G1 X70.012 Y196.679 E1.74758
G1 X69.354 Y197.092 E1.76825
G1 X68.677 Y197.486 E1.78909
G1 X67.984 Y197.859 E1.81003
G1 X67.288 Y198.201 E1.83067
G1 X66.569 Y198.526 E1.85166
G1 X65.852 Y198.821 E1.87229
G1 X65.12 Y199.094 E1.89308
G1 X64.37 Y199.344 E1.91411
G1 X63.629 Y199.563 E1.93467
G1 X62.876 Y199.759 E1.95538
G1 X62.105 Y199.932 E1.9764
G1 X61.331 Y200.077 E1.99736
G1 X60.558 Y200.193 E2.01815
G1 X59.794 Y200.282 E2.03862
G1 X59.011 Y200.349 E2.05953
G1 X58.225 Y200.387 E2.08047
G1 X57.455 Y200.399 E2.10096
G1 X56.665 Y200.385 E2.12198
G1 X55.88 Y200.343 E2.1429
G1 X55.107 Y200.274 E2.16355
G1 X54.332 Y200.18 E2.18432
G1 X53.554 Y200.058 E2.20528
G1 X52.791 Y199.911 E2.22595
G1 X52.015 Y199.734 E2.24713
G1 X51.274 Y199.536 E2.26754
G1 X50.516 Y199.309 E2.28859
G1 X49.786 Y199.061 E2.30911
G1 X49.048 Y198.783 E2.33009
G1 X48.32 Y198.479 E2.35108
G1 X47.62 Y198.158 E2.37157
G1 X46.92 Y197.809 E2.39239
G1 X46.224 Y197.431 E2.41346
G1 X45.561 Y197.04 E2.43394
G1 X44.892 Y196.617 E2.455
G1 X44.249 Y196.176 E2.47575
G1 X43.626 Y195.718 E2.49632
G1 X43.003 Y195.227 E2.51743
G1 X42.407 Y194.722 E2.53821
G1 X41.833 Y194.201 E2.55884
G1 X41.27 Y193.655 E2.57971
G1 X40.727 Y193.091 E2.60054
G1 X40.206 Y192.51 E2.6213
G1 X39.696 Y191.902 E2.64242
G1 X39.225 Y191.298 E2.6628
G1 X38.76 Y190.661 E2.68378
G1 X38.321 Y190.012 E2.70463
G1 X37.908 Y189.354 E2.7253
G1 X37.514 Y188.677 E2.74615
G1 X37.141 Y187.984 E2.76709
G1 X36.799 Y187.288 E2.78772
G1 X36.474 Y186.569 E2.80872
G1 X36.18 Y185.854 E2.82929
G1 X35.905 Y185.116 E2.85024
G1 X35.656 Y184.37 E2.87117
G1 X35.437 Y183.629 E2.89173
G1 X35.241 Y182.876 E2.91243
G1 X35.068 Y182.105 E2.93346
G1 X34.923 Y181.331 E2.95441
G1 X34.807 Y180.558 E2.97521
G1 X34.718 Y179.794 E2.99567
G1 X34.651 Y179.011 E3.01658
G1 X34.613 Y178.225 E3.03752
G1 X34.601 Y177.457 E3.05796
G1 X34.615 Y176.665 E3.07904
G1 X34.657 Y175.88 E3.09995
G1 X34.726 Y175.107 E3.1206
G1 X34.82 Y174.332 E3.14138
G1 X34.942 Y173.554 E3.16233
G1 X35.089 Y172.791 E3.18301
G1 X35.265 Y172.018 E3.2041
G1 X35.463 Y171.274 E3.22459
G1 X35.691 Y170.516 E3.24565
G1 X35.939 Y169.786 E3.26616
G1 X36.217 Y169.048 E3.28715
G1 X36.521 Y168.32 E3.30814
G1 X36.842 Y167.62 E3.32863
G1 X37.191 Y166.92 E3.34944
G1 X37.569 Y166.223 E3.37054
G1 X37.958 Y165.564 E3.3909
G1 X38.382 Y164.894 E3.412
G1 X38.824 Y164.249 E3.4328
G1 X39.281 Y163.627 E3.45334
G1 X39.772 Y163.003 E3.47447
G1 X40.277 Y162.408 E3.49523
G1 X40.798 Y161.834 E3.51586
G1 X41.345 Y161.27 E3.53676
G1 X41.908 Y160.728 E3.55756
G1 X42.49 Y160.205 E3.57838
G1 X43.096 Y159.697 E3.59942
G1 X43.703 Y159.225 E3.61988
G1 X44.337 Y158.762 E3.64077
G1 X44.988 Y158.321 E3.66169
G1 X45.646 Y157.908 E3.68236
G1 X46.323 Y157.514 E3.7032
G1 X47.016 Y157.141 E3.72414
G1 X47.712 Y156.799 E3.74478
G1 X48.431 Y156.474 E3.76577
G1 X49.148 Y156.179 E3.7864
G1 X49.684 Y155.979 E3.80162
G0 F1350 X49.88 Y155.906
G0 X50.63 Y155.656
G0 F7500 X50.744 Y156.039
G1 F1500 X51.473 Y155.824 E3.82185
G1 X52.213 Y155.631 E3.8422
G1 X52.969 Y155.461 E3.86281
G1 X53.73 Y155.318 E3.88342
G1 X54.489 Y155.204 E3.90384
G1 X55.241 Y155.116 E3.92399
G1 X56.01 Y155.051 E3.94452
G1 X56.782 Y155.012 E3.96509
G1 X57.539 Y155.001 E3.98523
G1 X58.19 Y155.01 E4.00256
G1 X59.086 Y155.056 E4.02643
G1 X59.846 Y155.123 E4.04673
G1 X60.607 Y155.215 E4.06713
G1 X61.372 Y155.335 E4.08773
G1 X62.122 Y155.48 E4.10805
G1 X62.883 Y155.653 E4.12882
G1 X63.612 Y155.847 E4.14889
G1 X64.356 Y156.07 E4.16956
G1 X65.074 Y156.314 E4.18974
G1 X65.799 Y156.586 E4.21034
G1 X66.514 Y156.885 E4.23096
G1 X67.203 Y157.201 E4.25113
G1 X67.891 Y157.543 E4.27157
G1 X68.575 Y157.914 E4.29228
G1 X69.224 Y158.297 E4.31233
G1 X69.881 Y158.713 E4.33302
G1 X70.515 Y159.146 E4.35345
G1 X71.127 Y159.596 E4.37366
G1 X71.739 Y160.078 E4.39439
G1 X72.324 Y160.574 E4.4148
G1 X72.889 Y161.086 E4.43509
G1 X73.443 Y161.623 E4.45562
G1 X73.975 Y162.176 E4.47603
G1 X74.489 Y162.748 E4.4965
G1 X74.988 Y163.343 E4.51716
G1 X75.453 Y163.94 E4.53729
G1 X75.908 Y164.562 E4.5578
G1 X76.341 Y165.201 E4.57834
G1 X76.747 Y165.849 E4.59868
G1 X77.134 Y166.513 E4.61913
G1 X77.5 Y167.194 E4.63971
G1 X77.836 Y167.876 E4.65993
G1 X78.158 Y168.584 E4.68063
G1 X78.446 Y169.288 E4.70087
G1 X78.715 Y170.008 E4.72132
G1 X78.96 Y170.743 E4.74194
G1 X79.176 Y171.473 E4.76219
G1 X79.369 Y172.213 E4.78254
G1 X79.539 Y172.969 E4.80316
G1 X79.681 Y173.729 E4.82373
G1 X79.796 Y174.488 E4.84416
G1 X79.884 Y175.24 E4.8643
G1 X79.949 Y176.009 E4.88484
G1 X79.988 Y176.782 E4.90543
G1 X79.999 Y177.538 E4.92555
G1 X79.986 Y178.315 E4.94623
G1 X79.944 Y179.086 E4.96677
G1 X79.877 Y179.846 E4.98707
G1 X79.785 Y180.607 E5.00747
G1 X79.665 Y181.372 E5.02807
G1 X79.52 Y182.122 E5.0484
G1 X79.348 Y182.88 E5.06908
G1 X79.153 Y183.612 E5.08924
G1 X78.93 Y184.356 E5.1099
G1 X78.686 Y185.074 E5.13008
G1 X78.414 Y185.799 E5.15068
G1 X78.115 Y186.514 E5.17131
G1 X77.799 Y187.203 E5.19147
G1 X77.457 Y187.891 E5.21192
G1 X77.086 Y188.575 E5.23262
G1 X76.703 Y189.224 E5.25267
G1 X76.287 Y189.881 E5.27337
G1 X75.854 Y190.515 E5.29379
G1 X75.404 Y191.127 E5.31401
G1 X74.922 Y191.739 E5.33473
G1 X74.426 Y192.324 E5.35514
G1 X73.914 Y192.889 E5.37543
G1 X73.377 Y193.443 E5.39596
G1 X72.824 Y193.975 E5.41638
G1 X72.252 Y194.489 E5.43684
G1 X71.657 Y194.988 E5.4575
G1 X71.06 Y195.453 E5.47764
G1 X70.438 Y195.908 E5.49814
G1 X69.799 Y196.341 E5.51868
G1 X69.151 Y196.747 E5.53903
G1 X68.487 Y197.134 E5.55948
G1 X67.806 Y197.5 E5.58005
G1 X67.122 Y197.837 E5.60034
G1 X66.417 Y198.157 E5.62094
G1 X65.712 Y198.446 E5.64121
G1 X64.992 Y198.715 E5.66166
G1 X64.256 Y198.961 E5.68231
G1 X63.527 Y199.176 E5.70254
G1 X62.787 Y199.369 E5.72288
G1 X62.031 Y199.539 E5.7435
G1 X61.27 Y199.682 E5.76411
G1 X60.511 Y199.796 E5.78453
G1 X59.759 Y199.884 E5.80467
G1 X58.99 Y199.949 E5.82521
G1 X58.218 Y199.988 E5.84578
G1 X57.461 Y199.999 E5.86592
G1 X56.685 Y199.986 E5.88657
G1 X55.914 Y199.944 E5.90712
G1 X55.154 Y199.877 E5.92742
G1 X54.393 Y199.785 E5.94781
G1 X53.628 Y199.665 E5.96842
G1 X52.878 Y199.52 E5.98874
G1 X52.117 Y199.347 E6.00951
G1 X51.388 Y199.153 E6.02958
G1 X50.644 Y198.93 E6.05025
G1 X49.926 Y198.686 E6.07042
G1 X49.201 Y198.414 E6.09103
G1 X48.486 Y198.115 E6.11165
G1 X47.797 Y197.799 E6.13182
G1 X47.109 Y197.457 E6.15226
G1 X46.426 Y197.086 E6.17294
G1 X45.774 Y196.701 E6.19309
G1 X45.117 Y196.286 E6.21377
G1 X44.485 Y195.853 E6.23415
G1 X43.872 Y195.403 E6.25439
G1 X43.261 Y194.922 E6.27508
G1 X42.675 Y194.426 E6.2955
G1 X42.111 Y193.913 E6.31579
G1 X41.557 Y193.377 E6.3363
G1 X41.023 Y192.823 E6.35678
G1 X40.511 Y192.252 E6.37718
G1 X40.011 Y191.656 E6.39788
G1 X39.548 Y191.061 E6.41794
G1 X39.091 Y190.436 E6.43854
G1 X38.659 Y189.799 E6.45902
G1 X38.253 Y189.151 E6.47937
G1 X37.866 Y188.487 E6.49982
G1 X37.5 Y187.806 E6.52039
G1 X37.163 Y187.122 E6.54068
G1 X36.843 Y186.417 E6.56128
G1 X36.554 Y185.713 E6.58153
G1 X36.284 Y184.989 E6.60209
G1 X36.039 Y184.256 E6.62265
G1 X35.824 Y183.527 E6.64288
G1 X35.631 Y182.787 E6.66323
G1 X35.461 Y182.031 E6.68384
G1 X35.318 Y181.27 E6.70445
G1 X35.204 Y180.511 E6.72487
G1 X35.116 Y179.759 E6.74502
G1 X35.051 Y178.99 E6.76555
G1 X35.012 Y178.218 E6.78612
G1 X35.001 Y177.462 E6.80624
G1 X35.014 Y176.685 E6.82691
G1 X35.056 Y175.914 E6.84746
G1 X35.123 Y175.154 E6.86776
G1 X35.215 Y174.393 E6.88816
G1 X35.335 Y173.628 E6.90876
G1 X35.48 Y172.878 E6.92909
G1 X35.652 Y172.12 E6.94977
G1 X35.847 Y171.388 E6.96992
G1 X36.07 Y170.644 E6.99059
G1 X36.314 Y169.926 E7.01077
G1 X36.586 Y169.201 E7.03137
G1 X36.885 Y168.486 E7.05199
G1 X37.201 Y167.797 E7.07216
G1 X37.543 Y167.109 E7.09261
G1 X37.914 Y166.425 E7.11331
G1 X38.297 Y165.776 E7.13336
G1 X38.713 Y165.119 E7.15405
G1 X39.146 Y164.485 E7.17448
G1 X39.596 Y163.873 E7.19469
G1 X40.078 Y163.261 E7.21542
G1 X40.574 Y162.676 E7.23583
G1 X41.086 Y162.111 E7.25612
G1 X41.623 Y161.557 E7.27665
G1 X42.176 Y161.025 E7.29706
G1 X42.748 Y160.511 E7.31753
G1 X43.343 Y160.012 E7.33819
G1 X43.94 Y159.547 E7.35832
G1 X44.562 Y159.092 E7.37883
G1 X45.201 Y158.659 E7.39937
G1 X45.849 Y158.253 E7.41971
G1 X46.513 Y157.866 E7.44016
G1 X47.194 Y157.5 E7.46074
G1 X47.878 Y157.163 E7.48102
G1 X48.583 Y156.843 E7.50163
G1 X49.288 Y156.554 E7.5219
G1 X49.798 Y156.363 E7.53639
G0 F1350 X50.008 Y156.285
G0 X50.744 Y156.039
G0 F7500 X50.858 Y156.423
G1 F1500 X51.575 Y156.211 E7.55628
G1 X52.302 Y156.021 E7.57628
G1 X53.044 Y155.854 E7.59652
G1 X53.791 Y155.714 E7.61674
G1 X54.536 Y155.601 E7.63679
G1 X55.276 Y155.515 E7.65661
G1 X56.031 Y155.45 E7.67677
G1 X56.788 Y155.412 E7.69694
G1 X57.533 Y155.401 E7.71677
G1 X58.184 Y155.41 E7.73409
G1 X59.052 Y155.454 E7.75721
G1 X59.799 Y155.52 E7.77717
G1 X60.546 Y155.611 E7.79719
G1 X61.297 Y155.728 E7.81742
G1 X62.034 Y155.87 E7.83739
G1 X62.78 Y156.04 E7.85774
G1 X63.499 Y156.231 E7.87754
G1 X64.228 Y156.449 E7.89779
G1 X64.934 Y156.689 E7.91763
G1 X65.646 Y156.956 E7.93786
G1 X66.348 Y157.248 E7.95809
G1 X67.026 Y157.559 E7.97794
G1 X67.701 Y157.895 E7.998
G1 X68.372 Y158.259 E8.01831
G1 X69.011 Y158.636 E8.03805
G1 X69.656 Y159.044 E8.05836
G1 X70.279 Y159.469 E8.07843
G1 X70.881 Y159.911 E8.0983
G1 X71.481 Y160.383 E8.11861
G1 X72.056 Y160.871 E8.13868
G1 X72.611 Y161.374 E8.15861
G1 X73.156 Y161.902 E8.1788
G1 X73.678 Y162.444 E8.19882
G1 X74.183 Y163.006 E8.21893
G1 X74.673 Y163.589 E8.23919
G1 X75.131 Y164.177 E8.25902
G1 X75.577 Y164.788 E8.27915
G1 X76.002 Y165.415 E8.29931
G1 X76.402 Y166.051 E8.3193
G1 X76.783 Y166.703 E8.33939
G1 X77.142 Y167.372 E8.35959
G1 X77.473 Y168.042 E8.37948
G1 X77.788 Y168.737 E8.39978
G1 X78.072 Y169.429 E8.41968
G1 X78.336 Y170.136 E8.43976
G1 X78.577 Y170.857 E8.45999
G1 X78.789 Y171.575 E8.47991
G1 X78.979 Y172.302 E8.49991
G1 X79.146 Y173.044 E8.52014
G1 X79.286 Y173.789 E8.54031
G1 X79.399 Y174.536 E8.56041
G1 X79.485 Y175.275 E8.58021
G1 X79.55 Y176.03 E8.60037
G1 X79.588 Y176.788 E8.62057
G1 X79.599 Y177.532 E8.64037
G1 X79.586 Y178.295 E8.66067
G1 X79.546 Y179.052 E8.68084
G1 X79.48 Y179.799 E8.7008
G1 X79.389 Y180.546 E8.72082
G1 X79.272 Y181.297 E8.74104
G1 X79.13 Y182.034 E8.76101
G1 X78.961 Y182.778 E8.78131
G1 X78.77 Y183.498 E8.80114
G1 X78.551 Y184.228 E8.82141
G1 X78.311 Y184.934 E8.84126
G1 X78.044 Y185.646 E8.86149
G1 X77.752 Y186.348 E8.88172
G1 X77.441 Y187.026 E8.90157
G1 X77.105 Y187.701 E8.92163
G1 X76.741 Y188.372 E8.94194
G1 X76.364 Y189.011 E8.96168
G1 X75.956 Y189.656 E8.98199
G1 X75.531 Y190.279 E9.00206
G1 X75.089 Y190.881 E9.02193
G1 X74.617 Y191.481 E9.04224
G1 X74.129 Y192.056 E9.06231
G1 X73.626 Y192.611 E9.08224
G1 X73.098 Y193.156 E9.10243
G1 X72.556 Y193.678 E9.12245
G1 X71.994 Y194.183 E9.14256
G1 X71.411 Y194.673 E9.16282
G1 X70.823 Y195.131 E9.18265
G1 X70.212 Y195.577 E9.20278
G1 X69.585 Y196.002 E9.22293
G1 X68.949 Y196.402 E9.24293
G1 X68.297 Y196.783 E9.26302
G1 X67.628 Y197.142 E9.28322
G1 X66.956 Y197.473 E9.30315
G1 X66.264 Y197.787 E9.32337
G1 X65.571 Y198.072 E9.34331
G1 X64.864 Y198.336 E9.36339
G1 X64.142 Y198.577 E9.38364
G1 X63.425 Y198.789 E9.40354
G1 X62.698 Y198.979 E9.42353
G1 X61.956 Y199.146 E9.44377
G1 X61.209 Y199.286 E9.46399
G1 X60.464 Y199.399 E9.48404
G1 X59.724 Y199.485 E9.50386
G1 X58.969 Y199.55 E9.52403
G1 X58.212 Y199.588 E9.5442
G1 X57.467 Y199.599 E9.56402
G1 X56.705 Y199.586 E9.5843
G1 X55.948 Y199.546 E9.60447
G1 X55.201 Y199.48 E9.62442
G1 X54.454 Y199.389 E9.64445
G1 X53.703 Y199.272 E9.66467
G1 X52.966 Y199.13 E9.68464
G1 X52.22 Y198.96 E9.705
G1 X51.501 Y198.769 E9.72479
G1 X50.772 Y198.551 E9.74504
G1 X50.066 Y198.311 E9.76488
G1 X49.354 Y198.044 E9.78511
G1 X48.652 Y197.752 E9.80534
G1 X47.974 Y197.441 E9.82519
G1 X47.299 Y197.105 E9.84525
G1 X46.629 Y196.741 E9.86554
G1 X45.986 Y196.363 E9.88539
G1 X45.343 Y195.956 E9.90564
G1 X44.721 Y195.53 E9.9257
G1 X44.119 Y195.088 E9.94557
G1 X43.518 Y194.616 E9.9659
G1 X42.944 Y194.129 E9.98593
G1 X42.388 Y193.625 E10.0059
G1 X41.844 Y193.098 E10.02605
G1 X41.32 Y192.554 E10.04615
G1 X40.817 Y191.995 E10.06616
G1 X40.326 Y191.409 E10.0865
G1 X39.87 Y190.824 E10.10624
G1 X39.421 Y190.21 E10.12648
G1 X38.998 Y189.585 E10.14656
G1 X38.598 Y188.949 E10.16655
G1 X38.217 Y188.297 E10.18664
G1 X37.858 Y187.628 E10.20685
G1 X37.527 Y186.956 E10.22678
G1 X37.213 Y186.264 E10.247
G1 X36.928 Y185.572 E10.26691
G1 X36.663 Y184.861 E10.2871
G1 X36.423 Y184.142 E10.30727
G1 X36.211 Y183.425 E10.32716
G1 X36.021 Y182.698 E10.34716
G1 X35.854 Y181.956 E10.36739
G1 X35.714 Y181.209 E10.38762
G1 X35.601 Y180.464 E10.40767
G1 X35.515 Y179.724 E10.42749
G1 X35.45 Y178.969 E10.44765
G1 X35.412 Y178.212 E10.46782
